!!!Xfilter: transpose -t P8
!!!OTL: 347. Abschied der Koenigin Louise (♱ 19. Juli 1810).
!!!ODT: 1885
!!!ARE: Europa, Mitteleuropa, Deutschland, Hessen, Westfalen
!!!SCT: E0347A
!!!TXL: @@DE
!!!YEM: Copyright 1995, estate of Helmut Schaffrath.
**kern	**text
*ICvox	*
*M4/4	*
*met(c)	*
*k[]	*
*C:	*
=1	=1
!LO:TX:a:t=Aus Heſſen und Weſtfalen. 1885.	!
{4.g	Wil-
8g	-helm
8g	komm
8g	an
8g	mei-
8g	-ne
=2	=2
8eeL	Sei-
8ccJ	.
4cc	-te,
4r}	.
{8b	nimm
8cc	den
=3	=3
4.dd	letʒ-
8cc	-ten
(4b/	Ab-
8a)	.
8b	-ſchieds-
=4	=4
2cc	-kuß,
4r}	.
{8e	tö-
8f	-nen
=5	=5
4.g	hör
8ee	ich
(4ee	das
8dd)	.
8cc	Ge-
=6	=6
8ccL	-läu-
8aJ	.
4a	-te,
4r}	.
{8cc	wel-
8a	-ches
=7	=7
4.g	mich
8cc	ʒu
(4b/	Gra-
8a)	.
8b	-be
=8	=8
2cc	ruft.
2r}	.
==	==
!!!AGN: historisches Lied, Tod Koenigin Louise (1810)
!!!ONB: ESAC (Essen Associative Code) Database: ERK1
!!!AMT: simple quadruple
!!!AIN: vox
!!!EED: Helmut Schaffrath
!!!EEV: 1.0
!!!GTL: Historische Lieder
!!!URL-scan: https://rosdok.uni-rostock.de/mcrviewer/recordIdentifier/rosdok_ppn745177662/iview2/phys_0160.iview2?x=-511.385789653207&y=2253.9869585703127&scale=0.48104763951911705&rotation=0&layout=singlePageLayout
!!!ENC: Anna Maria Matuszewska
!!!EEV: 2024/06/12
*-	*-
